Papirus/32x32/apps/chromium-dev.svg

<svg xmlns="http://www.w3.org/2000/svg" width="32" height="32" version="1">
 <circle style="opacity:.2" cx="16" cy="17" r="14"/>
 <path style="opacity:.1" d="m15.994 29.985c-7.752 0-13.993-6.2408-13.993-13.993 0-0.11734-0.003-0.23319 0-0.34982 0.18501 7.5885 6.3581 13.643 13.993 13.643 7.6346 0 13.808-6.0544 13.993-13.643 0.003 0.11663 0 0.23248 0 0.34982 0 7.752-6.2408 13.993-13.993 13.993z"/>
 <path style="fill:#6199f6" d="M 4.3496094,8.2519531 C 4.1087319,8.6179297 3.8859324,9.0101305 3.6601562,9.3984375 2.5720803,11.428863 2.0018396,13.696408 2,16 2,16.737184 1.9650209,17.481638 2.1667676,18.167466 3,21 8.7903537,21.0078 15.785156,21.0078 15.856786,21.0057 15.928406,21.0031 16,21 l 6.84375,-2.03125 c -0.53102,0.86495 -2.7434,1.972478 -3.6875,2.517578 -3.021,1.7442 -6.857363,0.616783 -8.601562,-2.404297 z"/>
 <path style="fill:#a2c2fa" d="m 16.015625,9 c -0.01547,0 2.222016,0.9979485 3.166016,1.542969 2.412436,1.39284 2.664231,6.367355 2.669921,8.380859 l 0.404297,0.234375 -0.412109,0.712891 c -3.2e-5,7.04e-4 0,0.0332 0,0.0332 l -0.15625,0.236328 -4.714844,1.890625 c 0.03711,9.6e-4 0.07426,0.0041 0.111328,0.0039 0.193487,-0.0032 0.386888,-0.01032 0.580078,-0.02149 C 17.776194,22.008489 17.888148,22.007875 18,22 c 0.441085,-0.03256 0.88038,-0.08601 1.316406,-0.160157 0.02874,-0.0048 0.05723,-0.01065 0.08594,-0.01563 C 25.332635,20.779163 29,21 29.815129,18.272824 30.030273,17.55302 29.999868,16.772069 30,16 29.993667,13.540591 29.339558,11.126248 28.103516,9 Z"/>
 <path style="fill:#396bd7" d="m15.994141 2a14 14 0 0 0 -0.242188 0.0078125 14 14 0 0 0 -0.742187 0.0273437 14 14 0 0 0 -0.041016 0.0058594 14 14 0 0 0 -1.265625 0.1523438c-0.042854 0.007037-0.086138 0.012266-0.128906 0.0195312-0.002631 0.000447-0.005185 0.0014946-0.007813 0.0019532a14 14 0 0 0 -1.310547 0.2949218 14 14 0 0 0 -2.6054684 1.0136719 14 14 0 0 0 -0.3105468 0.1777344 14 14 0 0 0 -5.4570313 5.3085937l5.6894531 9.8554684 0.1191406 0.238282 0.0292969 0.017578 0.2675781 0.464844 2.4550778 1.972656 0.681641-0.291016 0.78125 0.492188c-0.09245-0.170384-0.185116-0.424514-0.275391-0.708985l4.591797-1.96289-4.751953-8.232422c0.434712-1.0028562 1.194822-1.7061504 2.529297-1.855469h12.103516a14 14 0 0 0 -0.759766 -1.1757812 14 14 0 0 0 -0.855469 -1.0703126 14 14 0 0 0 -0.037109 -0.0429687 14 14 0 0 0 -0.908203 -0.9316406 14 14 0 0 0 -0.095703 -0.0878907 14 14 0 0 0 -0.958985 -0.8027343 14 14 0 0 0 -0.134765 -0.1015625 14 14 0 0 0 -0.990235 -0.6738282 14 14 0 0 0 -0.191406 -0.1171874 14 14 0 0 0 -0.996094 -0.5429688 14 14 0 0 0 -0.283203 -0.1347656 14 14 0 0 0 -0.957031 -0.4003906 14 14 0 0 0 -0.369141 -0.1367188 14 14 0 0 0 -0.921875 -0.28125 14 14 0 0 0 -0.46289 -0.1191406 14 14 0 0 0 -0.861329 -0.171875 14 14 0 0 0 -0.548828 -0.0820313 14 14 0 0 0 -0.785156 -0.078125 14 14 0 0 0 -0.986328 -0.0488281 14 14 0 0 0 -0.005859 0z"/>
 <path style="opacity:.2;fill:#ffffff" d="m16 2a14 14 0 0 0 -14 14 14 14 0 0 0 0.0215 0.586 14 14 0 0 1 13.978 -13.586 14 14 0 0 1 13.979 13.414 14 14 0 0 0 0.021 -0.414 14 14 0 0 0 -14 -14z"/>
 <rect style="opacity:.2" width="14" height="14" x="-24" y="-23" rx="7" ry="7" transform="matrix(0,-1,-1,0,0,0)"/>
 <rect style="fill:#ffffff" width="14" height="14" x="-23" y="-23" rx="7" ry="7" transform="matrix(0,-1,-1,0,0,0)"/>
 <rect style="fill:#4688f4" width="10" height="10" x="-21" y="-21" rx="5" ry="5" transform="matrix(0,-1,-1,0,0,0)"/>
 <path style="fill:#315072" d="m 2.158,17.999954 a 14,14 0 0 0 7.03125,10.226562 c 0.075734,0.04183 0.1519673,0.08257 0.2285157,0.123047 a 14,14 0 0 0 0.9394533,0.453125 c 0.114357,0.0501 0.2279,0.101299 0.34375,0.148438 a 14,14 0 0 0 0.871094,0.318359 c 0.141632,0.04706 0.282301,0.09797 0.425781,0.140625 a 14,14 0 0 0 0.900391,0.228516 c 0.135923,0.03082 0.268967,0.06885 0.40625,0.0957 a 14,14 0 0 0 0.957031,0.144531 c 0.130038,0.01626 0.257652,0.04006 0.388672,0.05273 a 14,14 0 0 0 1.300781,0.06641 c 0.01641,7.4e-5 0.0324,0.0019 0.04883,0.002 a 14,14 0 0 0 0.0039,0 c 0.0039,-5e-6 0.0078,8e-6 0.01172,0 0.377613,-7.91e-4 0.750237,-0.02249 1.121094,-0.05273 a 14,14 0 0 0 0.818359,-0.09961 c 0.17305,-0.02438 0.348401,-0.04163 0.519531,-0.07227 a 14,14 0 0 0 1.087894,-0.244183 c 0.06522,-0.01711 0.132392,-0.02886 0.197266,-0.04687 a 14,14 0 0 0 1.3125,-0.435547 14,14 0 0 0 1.259765,-0.564453 c 0.02239,-0.01127 0.04408,-0.02377 0.06641,-0.03516 a 14,14 0 0 0 1.148437,-0.658203 c 0.0057,-0.0036 0.01192,-0.0062 0.01758,-0.0098 a 14,14 0 0 0 0.02344,-0.01758 14,14 0 0 0 6.25,-9.763672 z"/>
 <path style="opacity:0.2" d="m 9.9997969,20.999954 v 6 h 1.5878911 c 0.936026,0 1.66435,-0.255822 2.185547,-0.765625 0.526513,-0.515407 0.789062,-1.278963 0.789062,-2.292969 0,-0.638655 -0.113108,-1.176306 -0.341797,-1.613281 -0.228688,-0.436975 -0.556956,-0.768097 -0.982422,-0.992187 -0.420148,-0.22409 -0.91336,-0.335938 -1.482422,-0.335938 z m 0.7187501,0.646484 h 0.931641 c 0.686064,0 1.215606,0.189104 1.58789,0.564454 0.377601,0.369748 0.566407,0.954738 0.566407,1.755859 0,1.591036 -0.770186,2.386719 -2.3125,2.386719 h -0.773438 z m 6.617188,1.353516 c -0.349326,0 -0.658145,0.08107 -0.923829,0.244141 -0.260764,0.16307 -0.463726,0.39706 -0.611328,0.699218 -0.142683,0.302158 -0.214844,0.663877 -0.214843,1.085938 0,0.431654 0.07889,0.793372 0.236328,1.085937 0.162363,0.292566 0.38651,0.513429 0.671875,0.66211 0.285364,0.148681 0.617247,0.222656 0.996093,0.222656 0.270602,0 0.504369,-0.02128 0.701172,-0.06445 0.196804,-0.03836 0.395933,-0.101172 0.597656,-0.1875 v -0.554688 c -0.206644,0.08633 -0.408665,0.155165 -0.605468,0.203125 -0.191883,0.04317 -0.413139,0.06445 -0.664063,0.06445 -0.393606,0 -0.700472,-0.112471 -0.921875,-0.337891 -0.216486,-0.230216 -0.330006,-0.698315 -0.339844,-1.134766 h 0.0039 v 0.01172 h 2.705078 v -0.259766 c 0,-0.35012 -0.06638,-0.655069 -0.199219,-0.914062 -0.127921,-0.263787 -0.316496,-0.46549 -0.5625,-0.609375 -0.245997,-0.143884 -0.534566,-0.216797 -0.869133,-0.216797 z m 2.361328,0 1.484375,4 h 0.740234 l 1.492187,-4 h -0.6875 l -0.833984,2.357422 c -0.03904,0.109453 -0.08109,0.232859 -0.125,0.367187 -0.04392,0.129354 -0.08401,0.257366 -0.123047,0.386719 -0.03903,0.124378 -0.06739,0.227039 -0.08203,0.306641 h -0.0293 c -0.01464,-0.0796 -0.03811,-0.182263 -0.07227,-0.306641 -0.03415,-0.124378 -0.07327,-0.252389 -0.117188,-0.386719 -0.04392,-0.134328 -0.08597,-0.257734 -0.125,-0.367187 l -0.833977,-2.357422 z m -2.369141,0.517578 c 0.329645,0 0.570133,0.102359 0.722656,0.308594 0.1034,0.136561 0.15975,0.313942 0.195313,0.507812 h -1.908203 c 0.05428,-0.205366 0.129773,-0.389148 0.251953,-0.521484 0.182042,-0.196643 0.428316,-0.294922 0.738281,-0.294922 z"/>
 <path style="fill:#ffffff" d="m 14.562924,22.941131 q 0,1.521008 -0.789771,2.294118 -0.781795,0.764705 -2.185834,0.764705 H 9.9997969 v -6 h 1.7550491 q 0.853592,0 1.483814,0.336134 0.638199,0.336135 0.981231,0.991597 0.343033,0.655463 0.343033,1.613446 z m -0.757863,0.0252 q 0,-1.201681 -0.566401,-1.756304 -0.558426,-0.563024 -1.587522,-0.563024 h -0.933365 v 4.705882 h 0.773816 q 2.313472,0 2.313472,-2.386554 z"/>
 <path style="fill:#ffffff" d="m 17.33521,21.999954 c -0.349326,0 -0.657241,0.08172 -0.922925,0.244792 -0.260764,0.16307 -0.46504,0.395758 -0.612642,0.697916 -0.142683,0.302158 -0.213896,0.663877 -0.213896,1.085938 0,0.431654 0.0789,0.793372 0.236342,1.085937 0.162363,0.292566 0.386693,0.51408 0.672058,0.662761 0.285364,0.148681 0.616698,0.222656 0.995544,0.222656 0.270602,0 0.504301,-0.02194 0.701104,-0.06511 0.196804,-0.03836 0.396395,-0.09987 0.598118,-0.186198 v -0.554688 c -0.206644,0.08633 -0.407916,0.153863 -0.604719,0.201823 -0.191883,0.04317 -0.414532,0.06511 -0.665456,0.06511 -0.393606,0 -0.7002,-0.113122 -0.921603,-0.338542 -0.216486,-0.230216 -0.329494,-0.697663 -0.339331,-1.134114 h 0.004 v 0.01172 h 2.704075 v 0 -0.259116 c 0,-0.35012 -0.06653,-0.65507 -0.199373,-0.914063 -0.127921,-0.263787 -0.315144,-0.46679 -0.561148,-0.610675 -0.246004,-0.143884 -0.535543,-0.216146 -0.87011,-0.216146 z m -0.0079,0.518229 c 0.329645,0 0.571028,0.102358 0.723551,0.308593 0.1034,0.136561 0.159849,0.312641 0.195412,0.506511 h -1.909225 c 0.05428,-0.205366 0.130007,-0.388497 0.252187,-0.520833 0.182042,-0.196643 0.42811,-0.294271 0.738075,-0.294271 z"/>
 <path style="fill:#ffffff" d="m 21.182306,25.999954 -1.485776,-4 h 0.687993 l 0.834379,2.358209 q 0.05855,0.164179 0.124425,0.365671 0.06588,0.201494 0.117104,0.388061 0.05123,0.186567 0.07319,0.30597 h 0.02927 q 0.02196,-0.119403 0.08051,-0.30597 0.05855,-0.19403 0.124424,-0.388061 0.06587,-0.201492 0.124425,-0.365671 l 0.834378,-2.358209 h 0.687996 l -1.493097,4 z"/>
</svg>

<svg xmlns="http://www.w3.org/2000/svg" width="32" height="32" version="1">
 <circle style="opacity:0.2" cx="16" cy="17" r="14"/>
 <path style="fill:#6199f6" d="M 4.349,8.252 C 4.108,8.618 3.885,9.01 3.66,9.398 2.5719,11.429 2.0017,13.696 2,16 2,23.732 8.268,28 16,28 16.072,27.998 16.143,27.995 16.215,27.992 L 22.844,18.969 C 22.313,19.834 20.101,20.941 19.156,21.487 16.135,23.231 12.299,22.104 10.554,19.083 L 4.349,8.253 Z"/>
 <path style="fill:#396bd7" d="M 15.997,2 C 15.467,2 15.211,2.022 15.01,2.035 14.075,2.089 13.162,2.286 12.256,2.51 9.206,3.357 5.931,5.463 3.883,9.01 L 9.988,19.586 12.443,21.559 18.223,19.088 13.471,10.855 C 13.905,9.853 14.666,9.149 16,9 H 28.104 C 27.098,7.262 24.553,3.816 19.645,2.5 18.063,2.065 16.611,2 16.003,2 Z"/>
 <path style="fill:#a2c2fa" d="M 16.016,9 C 16,9 18.238,9.998 19.182,10.543 21.594,11.936 21.846,16.91 21.852,18.924 L 22.256,19.158 16,27.992 C 16.037,27.993 16.074,27.996 16.111,27.996 16.305,27.993 16.498,27.986 16.691,27.975 22.996,27.683 29.999,24.482 30,16 29.994,13.541 29.34,11.126 28.104,9 Z"/>
 <path style="opacity:0.2;fill:#ffffff" d="M 16,2 A 14,14 0 0 0 2,16 14,14 0 0 0 2.0215,16.586 14,14 0 0 1 16,3 14,14 0 0 1 29.978,16.414 14,14 0 0 0 29.999,16 14,14 0 0 0 15.999,2 Z"/>
 <circle style="opacity:0.2" cx="16" cy="17" r="7"/>
 <circle style="fill:#ffffff" cx="16" cy="16" r="7"/>
 <circle style="fill:#4688f4" cx="16" cy="16" r="5"/>
 <path style="fill:#315072" d="M 2.1445 18 A 14 14 0 0 0 16 30 A 14 14 0 0 0 29.855 18 L 2.1445 18 z"/>
 <path style="opacity:0.2" d="M 9.9998,21 V 27 H 11.588 C 12.524,27 13.252,26.744 13.773,26.234 14.3,25.719 14.562,24.955 14.562,23.941 14.562,23.303 14.449,22.765 14.221,22.328 13.992,21.891 13.664,21.56 13.238,21.336 12.818,21.112 12.325,21 11.756,21 Z M 10.719,21.646 H 11.65 C 12.336,21.646 12.866,21.836 13.238,22.211 13.616,22.581 13.804,23.166 13.804,23.967 13.804,25.558 13.034,26.353 11.492,26.353 H 10.719 Z M 17.336,23 C 16.986,23 16.678,23.081 16.412,23.244 16.151,23.407 15.948,23.641 15.801,23.943 15.658,24.245 15.586,24.607 15.586,25.029 15.586,25.461 15.665,25.823 15.822,26.115 15.984,26.408 16.209,26.629 16.494,26.777 16.779,26.926 17.111,27 17.49,27 17.761,27 17.994,26.979 18.191,26.936 18.388,26.897 18.587,26.834 18.789,26.748 V 26.193 C 18.582,26.28 18.38,26.348 18.183,26.396 17.992,26.44 17.77,26.461 17.519,26.461 17.126,26.461 16.819,26.348 16.597,26.123 16.381,25.893 16.267,25.437 16.258,25 H 18.967 V 24.74 C 18.967,24.39 18.9,24.085 18.767,23.826 18.639,23.562 18.451,23.361 18.205,23.217 17.959,23.073 17.67,23 17.336,23 Z M 19.697,23 21.181,27 H 21.922 L 23.414,23 H 22.726 L 21.562,26.418 H 21.533 L 20.385,23 Z M 17.328,23.518 C 17.658,23.518 17.898,23.62 18.051,23.826 18.154,23.963 18.21,24.14 18.246,24.334 H 16.338 C 16.392,24.129 16.467,23.945 16.59,23.812 16.772,23.616 17.018,23.518 17.328,23.518 Z"/>
 <path style="fill:#ffffff" d="M 21.182,26 19.697,22 H 20.385 L 21.534,25.418 H 21.563 L 22.727,22 H 23.415 L 21.922,26 Z M 17.335,22 C 16.986,22 16.678,22.082 16.412,22.245 16.152,22.408 15.947,22.641 15.8,22.943 15.657,23.245 15.586,23.607 15.586,24.029 15.586,24.46 15.665,24.822 15.822,25.115 15.984,25.407 16.209,25.629 16.494,25.777 16.78,25.926 17.111,26 17.49,26 17.76,26 17.994,25.978 18.191,25.935 18.388,25.896 18.587,25.835 18.789,25.749 V 25.194 C 18.582,25.28 18.381,25.348 18.184,25.396 17.992,25.439 17.77,25.461 17.519,25.461 17.125,25.461 16.819,25.348 16.597,25.122 16.381,24.892 16.268,24.436 16.258,24 H 18.966 V 23.741 C 18.966,23.391 18.899,23.086 18.767,22.827 18.639,22.563 18.451,22.36 18.205,22.216 17.959,22.072 17.67,22 17.335,22 Z M 17.327,22.518 C 17.657,22.518 17.898,22.621 18.051,22.827 18.154,22.963 18.211,23.139 18.246,23.333 H 16.337 C 16.391,23.128 16.467,22.945 16.589,22.812 16.771,22.616 17.017,22.518 17.327,22.518 Z M 14.563,22.941 Q 14.563,24.462 13.773,25.235 12.991,26 11.587,26 H 9.9998 V 20 H 11.755 Q 12.608,20 13.239,20.336 13.877,20.672 14.22,21.328 14.563,21.983 14.563,22.941 Z M 13.805,22.966 Q 13.805,21.765 13.239,21.21 12.68,20.647 11.651,20.647 H 10.718 V 25.353 H 11.492 Q 13.805,25.353 13.805,22.966 Z"/>
</svg>
